icons/nextjs-icon.svg

<?xml version="1.0" encoding="UTF-8"?>
<svg width="256px" height="256px" viewBox="0 0 256 256" version="1.1" xmlns="http://www.w3.org/2000/svg" xmlns:xlink="http://www.w3.org/1999/xlink" preserveAspectRatio="xMidYMid">
    <g>
        <path d="M119.616813,0.0688905149 C119.066276,0.118932037 117.314565,0.294077364 115.738025,0.419181169 C79.3775171,3.69690087 45.3192571,23.3131775 23.7481916,53.4631946 C11.7364614,70.2271045 4.05395894,89.2428829 1.15112414,109.384595 C0.12512219,116.415429 0,118.492153 0,128.025062 C0,137.557972 0.12512219,139.634696 1.15112414,146.665529 C8.10791789,194.730411 42.3163245,235.11392 88.7116325,250.076335 C97.0197458,252.753556 105.778299,254.580072 115.738025,255.680985 C119.616813,256.106338 136.383187,256.106338 140.261975,255.680985 C157.453763,253.779407 172.017986,249.525878 186.382014,242.194795 C188.584164,241.068861 189.00958,240.768612 188.709286,240.518404 C188.509091,240.36828 179.124927,227.782837 167.86393,212.570214 L147.393939,184.922273 L121.743891,146.965779 C107.630108,126.098464 96.0187683,109.034305 95.9186706,109.034305 C95.8185728,109.009284 95.7184751,125.873277 95.6684262,146.465363 C95.5933529,182.52028 95.5683284,183.971484 95.1178886,184.82219 C94.4672532,186.048207 93.9667644,186.548623 92.915738,187.099079 C92.114956,187.499411 91.4142717,187.574474 87.6355816,187.574474 L83.3063539,187.574474 L82.1552297,186.848872 C81.4044966,186.373477 80.8539589,185.747958 80.4785924,185.022356 L79.9530792,183.896422 L80.0031281,133.729796 L80.0782014,83.5381493 L80.8539589,82.5623397 C81.25435,82.0369037 82.1051808,81.3613431 82.7057674,81.0360732 C83.7317693,80.535658 84.1321603,80.4856165 88.4613881,80.4856165 C93.5663734,80.4856165 94.4172043,80.6857826 95.7434995,82.1369867 C96.1188661,82.5373189 110.007429,103.454675 126.623656,128.650581 C143.239883,153.846488 165.962072,188.250034 177.122972,205.139048 L197.392766,235.839522 L198.418768,235.163961 C207.502639,229.259062 217.112023,220.852086 224.719453,212.09482 C240.910264,193.504394 251.345455,170.835585 254.848876,146.665529 C255.874878,139.634696 256,137.557972 256,128.025062 C256,118.492153 255.874878,116.415429 254.848876,109.384595 C247.892082,61.3197135 213.683675,20.9362052 167.288368,5.97379012 C159.105376,3.32158945 150.396872,1.49507389 140.637341,0.394160408 C138.234995,0.143952798 121.693842,-0.131275573 119.616813,0.0688905149 L119.616813,0.0688905149 Z M172.017986,77.4831252 C173.219159,78.0836234 174.195112,79.2345784 174.545455,80.435575 C174.74565,81.0861148 174.795699,94.9976579 174.74565,126.348671 L174.670577,171.336 L166.73783,159.17591 L158.780059,147.01582 L158.780059,114.313685 C158.780059,93.1711423 158.880156,81.2862808 159.030303,80.7108033 C159.430694,79.3096407 160.306549,78.2087272 161.507722,77.5581875 C162.533724,77.0327515 162.909091,76.98271 166.837928,76.98271 C170.541544,76.98271 171.19218,77.0327515 172.017986,77.4831252 Z" fill="#000000"></path>
    </g>
</svg>

<svg xmlns="http://www.w3.org/2000/svg" viewBox="0 0 256 256">
  <path d="M119.617.069c-.55.05-2.302.225-3.879.35-36.36 3.278-70.419 22.894-91.99 53.044-12.012 16.764-19.694 35.78-22.597 55.922C.125 116.415 0 118.492 0 128.025c0 9.533.125 11.61 1.151 18.64 6.957 48.065 41.165 88.449 87.56 103.411 8.309 2.678 17.067 4.504 27.027 5.605 3.879.425 20.645.425 24.524 0 17.192-1.902 31.756-6.155 46.12-13.486 2.202-1.126 2.628-1.426 2.327-1.677-.2-.15-9.584-12.735-20.845-27.948l-20.47-27.648-25.65-37.956c-14.114-20.868-25.725-37.932-25.825-37.932-.1-.025-.2 16.84-.25 37.431-.076 36.055-.1 37.506-.551 38.357-.65 1.226-1.151 1.727-2.202 2.277-.801.4-1.502.475-5.28.475h-4.33l-1.15-.725a4.679 4.679 0 0 1-1.677-1.827l-.526-1.126.05-50.166.075-50.192.776-.976c.4-.525 1.251-1.2 1.852-1.526 1.026-.5 1.426-.55 5.755-.55 5.105 0 5.956.2 7.282 1.651.376.4 14.264 21.318 30.88 46.514 16.617 25.195 39.34 59.599 50.5 76.488l20.27 30.7 1.026-.675c9.084-5.905 18.693-14.312 26.3-23.07 16.191-18.59 26.626-41.258 30.13-65.428 1.026-7.031 1.151-9.108 1.151-18.64 0-9.534-.125-11.61-1.151-18.641-6.957-48.065-41.165-88.449-87.56-103.411-8.184-2.652-16.892-4.479-26.652-5.58-2.402-.25-18.943-.525-21.02-.325zm52.401 77.414c1.201.6 2.177 1.752 2.527 2.953.2.65.25 14.562.2 45.913l-.074 44.987-7.933-12.16-7.958-12.16v-32.702c0-21.143.1-33.028.25-33.603.4-1.401 1.277-2.502 2.478-3.153 1.026-.525 1.401-.575 5.33-.575 3.704 0 4.354.05 5.18.5z"/>
</svg>
